packages/ffe-icons/icons/open/400/sm/lte_plus_mobiledata.svg

<svg xmlns="http://www.w3.org/2000/svg" height="20" viewBox="0 -960 960 960" width="20"><path d="M204-336H84q-15.3 0-25.65-10.34Q48-356.68 48-371.96v-215.76Q48-603 58.29-613.5 68.58-624 83.79-624t25.71 10.35Q120-603.3 120-588v180h84q15.3 0 25.65 10.29Q240-387.42 240-372.21t-10.35 25.71Q219.3-336 204-336Zm108.21 0q-15.21 0-25.71-10.35T276-372v-180h-48q-15.3 0-25.65-10.29Q192-572.58 192-587.79t10.35-25.71Q212.7-624 228-624h168q15.3 0 25.65 10.29Q432-603.42 432-588.21t-10.35 25.71Q411.3-552 396-552h-48v179.72q0 15.28-10.29 25.78-10.29 10.5-25.5 10.5ZM636-336H516q-15.3 0-25.65-10.34Q480-356.68 480-371.96v-215.76q0-15.28 10.35-25.78Q500.7-624 516-624h120q15.3 0 25.65 10.29Q672-603.42 672-588.21t-10.35 25.71Q651.3-552 636-552h-84v36h84q15.3 0 25.65 10.29Q672-495.42 672-480.21t-10.35 25.71Q651.3-444 636-444h-84v36h84q15.3 0 25.65 10.29Q672-387.42 672-372.21t-10.35 25.71Q651.3-336 636-336Zm168-108h-48q-15.3 0-25.65-10.29Q720-464.58 720-479.79t10.35-25.71Q740.7-516 756-516h48v-48q0-15.3 10.29-25.65Q824.58-600 839.79-600t25.71 10.35Q876-579.3 876-564v48h48q15.3 0 25.65 10.29Q960-495.42 960-480.21t-10.35 25.71Q939.3-444 924-444h-48v48q0 15.3-10.29 25.65Q855.42-360 840.21-360t-25.71-10.35Q804-380.7 804-396v-48Z"/></svg>

<svg xmlns="http://www.w3.org/2000/svg" height="20" viewBox="0 -960 960 960" width="20"><path d="M204-336H84q-15.3 0-25.65-10.338Q48-356.677 48-371.96v-215.757Q48-603 58.29-613.5 68.578-624 83.79-624q15.21 0 25.71 10.35T120-588v180h84q15.3 0 25.65 10.289 10.35 10.29 10.35 25.5Q240-357 229.65-346.5 219.3-336 204-336Zm108.211 0Q297-336 286.5-346.35 276-356.7 276-372v-180h-48q-15.3 0-25.65-10.289-10.35-10.29-10.35-25.5Q192-603 202.35-613.5 212.7-624 228-624h168q15.3 0 25.65 10.289 10.35 10.29 10.35 25.5Q432-573 421.65-562.5 411.3-552 396-552h-48v179.724Q348-357 337.711-346.5q-10.29 10.5-25.5 10.5ZM636-336H516q-15.3 0-25.65-10.338Q480-356.677 480-371.96v-215.757Q480-603 490.35-613.5 500.7-624 516-624h120q15.3 0 25.65 10.289 10.35 10.29 10.35 25.5Q672-573 661.65-562.5 651.3-552 636-552h-84v36h84q15.3 0 25.65 10.289 10.35 10.29 10.35 25.5Q672-465 661.65-454.5 651.3-444 636-444h-84v36h84q15.3 0 25.65 10.289 10.35 10.29 10.35 25.5Q672-357 661.65-346.5 651.3-336 636-336Zm168-108h-48q-15.3 0-25.65-10.289-10.35-10.29-10.35-25.5Q720-495 730.35-505.5 740.7-516 756-516h48v-48q0-15.3 10.289-25.65 10.29-10.35 25.5-10.35Q855-600 865.5-589.65 876-579.3 876-564v48h48q15.3 0 25.65 10.289 10.35 10.29 10.35 25.5Q960-465 949.65-454.5 939.3-444 924-444h-48v48q0 15.3-10.289 25.65-10.29 10.35-25.5 10.35Q825-360 814.5-370.35 804-380.7 804-396v-48Z"/></svg>
